X:68
T:Lucy
C:Colin Hume, 2006
S:Colin Hume's website,  www.colinhume.com  - chords can also be printed below the stave.
%%MIDI beat 100 95 80
Q:1/4=110
%%MIDI chordname dim 0 3 6 9
M:3/4
L:1/4
H:For Lucy Ward on her marriage to Alex Dickson, 4th August 2007
K:Am
V:1
K:Am
[| [ac] e2 | [g_B] d2 | [f_A][_ec][d_B] | [cA][d3/2_B3/2] [_e/2c/2] |\
[d=B^F][=B,2G2] | [_d_BG][_B,2G2] | [cGE][EC][GE] | [_B2^F2C2][AFC] |
[B,EG][Bg][A^f] | [G^f]e[Gd] | [EGd]cB | [B,2E2A2][G/2B/2][^F/2A/2] |\
[EG][Bg][A^f] | [G^f]e[Gd] | [E^Fd]^c3/2B/2 | [^F=c]B3/2[^D/2A/2] |
[B,^G][D2B2] | [CA][E2c2] | [FB][Bd][Af] | [^G2e2]d |\
[Ec][=G2e2] | [Fd][A2f2] | [^F^d][A^f][ca] | [B3d3^g3] |
[ac] e3/2e/2 | e d2 | [ac] [c3/2A3/2][c/2A/2] | c B2 |\
[A^F][F^D][AF] | [cA][ec]E | [c2^G2D2]B | [A3C3] |
DEF | [EC][CA,][A,^F,] | ^G,2 A, | A,3 |]
V:2 bass
I:octave=-2
%%MIDI gchordoff
[| "Am7"[a2g'2] c' | "Gm7"[g2f'2] _b | "Fm7"[_e'3f3] | "D7"[d'2^f2] d |\
"Gmaj7"g2 d | "Gdim"e2 G | "Am7"A2 e | "D7"d^cd |
"Em"e2 d' | "C"c'2 b | "Am"a2 g | "Bsus"^fe "B7"[^da] |\
"Em"[e2b2] [db] | "C"[c2c'2][Bb] | "F#7"[^A2^a2]^f | "B7"[^d2a2]B |
"E7"e2 ^G | "Am"A2 c | "Dm"[d2a2] [B] | "E"[ed']^gb |\
"Am"a2 c | "Dm"[b2d2] A | "B7"B2 ^d | "E"e^gb |
"Am7"[a2g'2] c' | "Dm"[b2f'2a'2] f | "Am/F#"[e'2^f2] a | "E7"[e'2d'2^g2] e |\
"Cdim"[c'3^d3] | "Am"[c'3e3] | "E7"[e3E3] | "F"[f2F2] e |
"Dm"[a3d3] | "Am"[e3E3] | "E7"[d3B3E3] | "Am"[e3c3A3] |]
